X: 1
T: Little Tea
P: piffero primo a0651
O: cfd bk2, mod
%R: jig
F: http://ancients.sudburymuster.org/mus/sng/pdf/littleteaC0.pdf
Z: 2020 John Chambers <jc:trillian.mit.edu>
M: 6/8
L: 1/8
K: D
F/G/ |\
Afe dcd | BGB e2d | cBc ABc | dfd A2F/G/ |\
Afe dcd | BGB e2d | cBc ABc | d2f d2 :|
|: F/G/ |\
AFA d2c | BGB e2d | cBc ABc | dfd A2 F/G/ |\
AFA d2c | BGB e2d | cBc ABc | d2f d2 :|
